X:1
T:James Gibb editions
T:Resonet in laudibus - Handl
T:#
%%score [ 1 2 3 4 ]
L:1/8
Q:1/4=160
M:6/4
K:F
V:1 treble nm="Soprano" snm="S"
V:2 treble nm="Alto" snm="A"
V:3 treble-8 nm="Tenor" snm="T"
V:4 bass nm="Bass" snm="B"
V:1
"^Resonet in laudibus""^Jacob Handl\n(1550-91)""^Can." c4 A2 F4 A2 | c4 d2 c6 || %2
w: Re- so- net in|lau- di- bus|
"^Dec." c4 A2 F4 A2 | c4 d2 c6 ||"^Full" B4 B2 B4 c2 | B4 A2 G4 A2 | c4 A2 F4 A2 | G4 ^F2 G4 A2 | %8
w: cum ju- cun- dis|plau- di- bus|Si- on cum fi-|de- li- bus: ap-|pa- ru- it quem|ge- nu- it Ma-|
 F6 F4 z2 | ^F4 G2 A4 B2 | A4 G2 G4 A2 | F4 F2 F6 || c6 A6 | c6 A6 ||"^Can." ^F4 G2 A4 B2 | %15
w: ri- a.|Sunt im- ple- ta,|quae prae- di- xit|Ga- bri- el.|E- ia,|e- ia.|Vir- go De- um|
 A4 G2 A6 | ^F4 G2 A4 B2 | c4 B2 A4 B2 | G4 G2 A6 ||"^Dec." ^F4 G2 A4 B2 | c4 B2 A4 B2 | %21
w: ge- nu- it,|quem di- vi- na|vo- lu- it cle-|men- ti- a,|quem di- vi- na|vo- lu- it cle-|
 A4 G2 A6 ||"^Full" c4 c2 c4 c2 | f4 e2 d4 c2 | f4 e2 d4 c2 | c4 =B2 c6 || ^F4 G2 A4 B2 | %27
w: men- ti- a.|Ho- di- e ap-|pa- ru- it, ap-|pa- ru- it in|Is- ra- el|ex Ma- ri- a|
 c4 B2 A4 B2 | A4 G2 A6 | ^F4 G2 A4 B2 |[Q:1/4=157] c4[Q:1/4=152] B2[Q:1/4=148] A4[Q:1/4=144] B2 | %31
w: Vir- gi- ne est|na- tus Rex,|ex Ma- ri- a|Vir- gi- ne est|
[Q:1/4=140] A4[Q:1/4=137] G2[Q:1/4=136] A6 |] %32
w: na- tus Rex.|
V:2
 F4 F2 C4 F2 | A4 B2 A6 || F4 F2 C4 F2 | A4 B2 A6 || G4 G2 G4 G2 | G4 F2 =E4 F2 | G4 F2 A4 F2 | %7
w: Re- so- net in|lau- di- bus|cum ju- cun- dis|plau- di- bus|Si- on cum fi-|de- li- bus: ap-|pa- ru- it quem|
 D4 D2 (DCDE) =F2 | (C2 D4) C4 z2 | D4 D2 F4 F2 | F4 D2 E4 F2 | C4 D2 C6 || A4 G2 F4 E2 | %13
w: ge- nu- it * * * Ma-|ri\- * a.|Sunt im- ple- ta,|quae prae- di- xit|Ga- bri- el.|E- ia, e- ia,|
 A4 G2 F4 E2 || D4 D2 F4 F2 | F4 D2 F6 | D4 D2 F4 F2 | A4 G2 F4 F2 | E4 E2 F6 || D4 D2 F4 F2 | %20
w: e- ia, e- ia.|Vir- go De- um|ge- nu- it,|quem di- vi- na|vo- lu- it cle-|men- ti- a,|quem di- vi- na|
 A4 G2 F4 F2 | F4 D2 F6 || A4 G2 A4 A2 | A4 A2 A4 A2 | A4 c2 B4 A2 | A2 G4 G6 || D4 D2 F4 F2 | %27
w: vo- lu- it cle-|men- ti- a.|Ho- di- e ap-|pa- ru- it, ap-|pa- ru- it in|Is- ra- el|ex Ma- ri- a|
 A4 G2 F4 F2 | F4 D2 F6 | D4 D2 F4 F2 | A4 G2 F4 F2 | F4 D2 F6 |] %32
w: Vir- gi- ne est|na- tus Rex,|ex Ma- ri- a|Vir- gi- ne est|na- tus Rex.|
V:3
 c4 c2 A4 d2 | (e2 f2) f2 f6 || c4 c2 A4 d2 | (e2 f2) f2 f6 || d4 d2 _e4 e2 | _e4 c2 c4 c2 | %6
w: Re- so- net in|lau\- * di- bus|cum ju- cun- dis|plau\- * di- bus|Si- on cum fi-|de- li- bus: ap-|
 =e4 f2 c4 c2 | B4 A2 B4 c2 | (AGFA B2) A4 z2 | A4 =B2 c4 d2 | c4 =B2 c4 c2 | A4 _B2 A6 || %12
w: pa- ru- it quem|ge- nu- it Ma-|ri\- * * * * a.|Sunt im- ple- ta,|quae prae- di- xit|Ga- bri- el.|
 (f2 ed) e2 (cdcB) c2 | (f2 ed) e2 (cdcB) c2 || A4 =B2 c4 d2 | c4 =B2 d6 | A4 =B2 c4 d2 | %17
w: E\- * * ia, e\- * * * ia,|e\- * * ia, e\- * * * ia.|Vir- go De- um|ge- nu- it,|quem di- vi- na|
 f4 d2 d4 d2 | c4 c2 c6 || A4 =B2 c4 d2 | f4 d2 d4 d2 | c4 =B2 c6 || f4 e2 f4 c2 | d4 c2 f4 e2 | %24
w: vo- lu- it cle-|men- ti- a,|quem di- vi- na|vo- lu- it cle-|men- ti- a.|Ho- di- e ap-|pa- ru- it, ap-|
 d4 c2 f4 e2 | f2 d4 c6 || A4 =B2 c4 d2 | f4 d2 d4 d2 | c4 =B2 c6 | A4 =B2 c4 d2 | f4 d2 d4 d2 | %31
w: pa- ru- it in|Is- ra- el|ex Ma- ri- a|Vir- gi- ne est|na- tus Rex,|ex Ma- ri- a|Vir- gi- ne est|
 c4 =B2 c6 |] %32
w: na- tus Rex.|
V:4
 F,4 F,2 F,4 D,2 | (A,2 F,2) B,2 F,6 || F,4 F,2 F,4 D,2 | (A,2 F,2) B,2 F,6 || G,4 G,2 _E,4 C,2 | %5
w: Re- so- net in|lau\- * di- bus|cum ju- cun- dis|plau\- * di- bus|Si- on cum fi-|
 _E,4 F,2 C,4 F,2 | C4 F,2 F,4 F,2 | G,4 D,2 G,4 F,2 | (F,E,D,C, B,,2) F,4 z2 | D,4 G,2 F,4 B,,2 | %10
w: de- li- bus: ap-|pa- ru- it quem|ge- nu- it Ma-|ri\- * * * * a.|Sunt im- ple- ta,|
 F,4 G,2 C,4 F,2 | F,4 B,,2 F,6 || (F,G,A,B,) C2 (F,D,F,G,) A,2 | (F,G,A,B,) C2 (F,D,F,G,) A,2 || %14
w: quae prae- di- xit|Ga- bri- el.|E\- * * * ia, e\- * * * ia,|e\- * * * ia, e\- * * * ia.|
 D,4 G,2 F,4 B,,2 | F,4 G,2 D,6 | D,4 G,2 F,4 B,,2 | F,4 G,2 D,4 B,,2 | C,4 C,2 F,6 || %19
w: Vir- go De- um|ge- nu- it,|quem di- vi- na|vo- lu- it cle-|men- ti- a,|
 D,4 G,2 F,4 B,,2 | F,4 G,2 D,4 B,,2 | F,4 G,2 F,6 || F,4 C2 F,4 F,2 | D,4 A,2 D4 A,2 | %24
w: quem di- vi- na|vo- lu- it cle-|men- ti- a.|Ho- di- e ap-|pa- ru- it, ap-|
 F,4 A,2 B,4 C2 | F,2 G,4 C,6 || D,4 G,2 F,4 B,,2 | F,4 G,2 D,4 B,,2 | F,4 G,2 F,6 | %29
w: pa- ru- it in|Is- ra- el|ex Ma- ri- a|Vir- gi- ne est|na- tus Rex,|
 D,4 G,2 F,4 B,,2 | F,4 G,2 D,4 B,,2 | F,4 G,2 F,6 |] %32
w: ex Ma- ri- a|Vir- gi- ne est|na- tus Rex.|

